Sources/FrostedUI/Resources/Icons.xcassets/codeblock12.imageset/codeblock-12.svg

<svg width="12" height="12" viewBox="0 0 12 12" fill="none" xmlns="http://www.w3.org/2000/svg" data-fui-icon="true">
  <path
    d="M9.125 10.875C10.0915 10.875 10.875 10.0915 10.875 9.125L10.875 2.875C10.875 1.90848 10.0915 1.125 9.125 1.125L2.875 1.125C1.90849 1.125 1.125 1.90849 1.125 2.875L1.125 9.125C1.125 10.0915 1.90848 10.875 2.875 10.875L9.125 10.875ZM2.875 9.375C2.73692 9.375 2.625 9.26308 2.625 9.125L2.625 2.875C2.625 2.73691 2.73691 2.625 2.875 2.625L9.125 2.625C9.26308 2.625 9.375 2.73692 9.375 2.875L9.375 9.125C9.375 9.26307 9.26307 9.375 9.125 9.375H2.875ZM4.59473 8.03027C4.88762 8.32317 5.36238 8.32317 5.65527 8.03027C5.94817 7.73738 5.94817 7.26262 5.65527 6.96973L4.68555 6L5.65527 5.03027C5.94817 4.73738 5.94817 4.26262 5.65527 3.96973C5.36238 3.67683 4.88762 3.67683 4.59473 3.96973L3.44824 5.11621C2.96014 5.60435 2.96014 6.39565 3.44824 6.88379L4.59473 8.03027ZM6.34473 8.03027C6.63762 8.32317 7.11238 8.32317 7.40527 8.03027L8.55176 6.88379C9.03987 6.39566 9.03987 5.60434 8.55176 5.11621L7.40527 3.96973C7.11238 3.67683 6.63762 3.67683 6.34473 3.96973C6.05183 4.26262 6.05183 4.73738 6.34473 5.03027L7.31445 6L6.34473 6.96973C6.05183 7.26262 6.05183 7.73738 6.34473 8.03027Z"
    fill="currentColor"
  />
</svg>

<svg xmlns="http://www.w3.org/2000/svg" width="12" height="12" fill="none" data-fui-icon="true" viewBox="0 0 12 12"><path fill="currentColor" d="M9.125 10.875a1.75 1.75 0 0 0 1.75-1.75v-6.25a1.75 1.75 0 0 0-1.75-1.75h-6.25a1.75 1.75 0 0 0-1.75 1.75v6.25c0 .966.783 1.75 1.75 1.75zm-6.25-1.5a.25.25 0 0 1-.25-.25v-6.25a.25.25 0 0 1 .25-.25h6.25a.25.25 0 0 1 .25.25v6.25a.25.25 0 0 1-.25.25zm1.72-1.345a.75.75 0 1 0 1.06-1.06L4.685 6l.97-.97a.75.75 0 1 0-1.06-1.06L3.448 5.116a1.25 1.25 0 0 0 0 1.768zm1.75 0a.75.75 0 0 0 1.06 0l1.147-1.146a1.25 1.25 0 0 0 0-1.768L7.405 3.97a.75.75 0 1 0-1.06 1.06l.97.97-.97.97a.75.75 0 0 0 0 1.06"/></svg>
